X:293
M:4/4
L:1/4
K:Ab
A3/4 B/4 | c3/4 c/4 c3/4 c/4 c3/4 B/4 A3/4 A/4 | B3/4 A/4 A3/4 F/4 E A3/4 B/4 | c3/4 c/4 c3/4 c/4 c3/4 c/4 B3/4 A/4 | B3 A3/4 B/4 | c3/4 c/4 c3/4 c/4 c3/4 B/4 A3/4 A/4 | B3/4 A/4 A3/4 F/4 E A3/4 B/4 | c3/4 c/4 c3/4 A/4 B3/4 B/4 B3/4 G/4 | A3 c3/4 d/4 | e2- e3/4 d/4 c3/4 d/4 | e2 c c3/4 c/4 | d2- d3/4 c/4 B3/4 c/4 | d2 B c3/4 d/4 | e2- e3/4 c/4 B3/4 A/4 | A2 d !sintro!d3/4 B/4 | c3/4 c/4 c3/4 A/4 B3/4 B/4 B3/4 G/4 | A3 !eintro!|]
